X:2656
T:Polonäs efter Gustaf Weslien
S:efter Gustaf Weslien
R:Slängpolska
B:Gustaf Wesliens notbok
B:http://www.smus.se/earkiv/fmk/browselarge.php?lang=sw&katalogid=MMD+34&bildnr=00014
B:Jämför [[http://www.smus.se/earkiv/fmk/browselarge.php?lang=sw&katalogid=MMD+67&bildnr=00041|SMUS - katalog MMD67 bild 41]] nr 98 ur [[Notböcker/Johan Erik Carlssons notbok]]
O:Östergötland
Z:Nils L
M:3/4
L:1/16
K:F
A2c2 cdcB cBAB | Acfa agfe fafc | A2Ac cdcB cBAB | Acfa agfe f4 ::
F2f2 agfg g2a2 | afbg afge fcAF | F2f2 agfg g2a2 | afbg afge f4 :|
(:musicend:)
(:music:)
